X: 1
T:Fair Wind, A
R:reel
H:Also played in G, #517
Z:id:hn-reel-535
M:C|
K:A
~A3B ~A3B|cBAB cBBc|~A3B ~A3B|1 cBAF FEEF:|2 cBAF FE~E2||
|:ceec ~A3B|cAec dBBd|ceec ~A3B|1 cBAF FE~E2:|2 cBAF FEFG||
|:AF~F2 d2dB|cBBA BdcB|AF~F2 d2dB|cBAF FEFG:|
